src/topics/icons/macosx.svg

<svg height="256" preserveAspectRatio="xMidYMid" viewBox="0 0 256 256" width="256" xmlns="http://www.w3.org/2000/svg" xmlns:xlink="http://www.w3.org/1999/xlink"><linearGradient id="a" x1="50%" x2="50%" y1="0%" y2="100%"><stop offset="0" stop-color="#58b0e3"/><stop offset="1" stop-color="#f44e28"/></linearGradient><circle cx="128" cy="128" fill="#fff" r="128"/><path d="m186.831132 49.2103774h-7.774529l-50.824528 73.4518866h-.46415l-50.708491-73.4518866h-7.8905661l54.7698111 79.0216976-54.5377356 78.557547h7.7745283l50.4764143-73.219811h.464152l50.476415 73.219811h7.890565l-54.537735-78.557547z" fill="url(#a)"/></svg>

<?xml version="1.0" encoding="UTF-8" standalone="no"?>
<svg width="256px" height="256px" viewBox="0 0 256 256" version="1.1" xmlns="http://www.w3.org/2000/svg" xmlns:xlink="http://www.w3.org/1999/xlink" preserveAspectRatio="xMidYMid">
    <defs>
        <linearGradient x1="50%" y1="0%" x2="50%" y2="100%" id="linearGradient-1">
            <stop stop-color="#58B0E3" offset="0%"></stop>
            <stop stop-color="#F44E28" offset="100%"></stop>
        </linearGradient>
    </defs>
	<g>
		<circle fill="#FFFFFF" cx="128" cy="128" r="128"></circle>
		<path d="M186.831132,49.2103774 L179.056603,49.2103774 L128.232075,122.662264 L127.767925,122.662264 L77.059434,49.2103774 L69.1688679,49.2103774 L123.938679,128.232075 L69.4009434,206.789622 L77.1754717,206.789622 L127.651886,133.569811 L128.116038,133.569811 L178.592453,206.789622 L186.483018,206.789622 L131.945283,128.232075 L186.831132,49.2103774 L186.831132,49.2103774 Z" fill="url(#linearGradient-1)"></path>
	</g>
</svg>
